assets/images/icons/src/deviantart.svg

<?xml version="1.0" encoding="utf-8"?>
<!-- Generated by IcoMoon.io -->
<!DOCTYPE svg PUBLIC "-//W3C//DTD SVG 1.1//EN" "http://www.w3.org/Graphics/SVG/1.1/DTD/svg11.dtd">
<svg version="1.1" xmlns="http://www.w3.org/2000/svg" xmlns:xlink="http://www.w3.org/1999/xlink" width="8" height="14" viewBox="0 0 8 14">
<path fill="#444444" d="M8 2.367l-2.367 4.547 0.187 0.242h2.18v3.242h-3.961l-0.344 0.234-1.109 2.133-0.234 0.234h-2.352v-2.367l2.367-4.555-0.187-0.234h-2.18v-3.242h3.961l0.344-0.234 1.109-2.133 0.234-0.234h2.352v2.367z"></path>
</svg>

<svg xmlns="http://www.w3.org/2000/svg" width="8" height="14" viewBox="0 0 8 14"><path fill="#444" d="M8 2.367L5.633 6.914l.187.242H8v3.242H4.039l-.344.234-1.109 2.133-.234.234H0v-2.367l2.367-4.555-.187-.234H0V2.601h3.961l.344-.234L5.414.234 5.648 0H8v2.367z"/></svg>
